src/svg-light/alias.svg

<svg xmlns="http://www.w3.org/2000/svg" id="svg5327" width="32" height="32" version="1.1">
 <defs id="defs5329">
  <filter id="filter883" style="color-interpolation-filters:sRGB" width="1.096" height="1.096" x="-.05" y="-.05">
   <feGaussianBlur id="feGaussianBlur885" stdDeviation=".3"/>
  </filter>
  <filter id="filter843" style="color-interpolation-filters:sRGB" width="1.108" height="1.087" x="-.05" y="-.04">
   <feGaussianBlur id="feGaussianBlur845" stdDeviation=".281"/>
  </filter>
  <filter id="filter835" style="color-interpolation-filters:sRGB" width="1.102" height="1.09" x="-.05" y="-.04">
   <feGaussianBlur id="feGaussianBlur837" stdDeviation=".32"/>
  </filter>
 </defs>
 <circle id="circle857" style="opacity:0.3;fill:#000000;fill-opacity:1;stroke:none;stroke-width:0;stroke-linecap:round;stroke-linejoin:round;stroke-miterlimit:4;stroke-dasharray:none;stroke-dashoffset:0;stroke-opacity:1;paint-order:normal;filter:url(#filter883)" cx="23.5" cy="23" r="7.5"/>
 <circle id="path828" style="opacity:1;fill:#ab47bc;fill-opacity:1;stroke:none;stroke-width:0;stroke-linecap:round;stroke-linejoin:round;stroke-miterlimit:4;stroke-dasharray:none;stroke-dashoffset:0;stroke-opacity:1;paint-order:normal" cx="23.5" cy="22.5" r="7.5"/>
 <path id="path877" style="color:#000000;font-style:normal;font-variant:normal;font-weight:normal;font-stretch:normal;font-size:medium;line-height:normal;font-family:sans-serif;font-variant-ligatures:normal;font-variant-position:normal;font-variant-caps:normal;font-variant-numeric:normal;font-variant-alternates:normal;font-feature-settings:normal;text-indent:0;text-align:start;text-decoration:none;text-decoration-line:none;text-decoration-style:solid;text-decoration-color:#000000;letter-spacing:normal;word-spacing:normal;text-transform:none;writing-mode:lr-tb;direction:ltr;text-orientation:mixed;dominant-baseline:auto;baseline-shift:baseline;text-anchor:start;white-space:normal;shape-padding:0;clip-rule:nonzero;display:inline;overflow:visible;visibility:visible;opacity:0.3;isolation:auto;mix-blend-mode:normal;color-interpolation:sRGB;color-interpolation-filters:linearRGB;solid-color:#000000;solid-opacity:1;vector-effect:none;fill:#000000;fill-opacity:1;fill-rule:nonzero;stroke:none;stroke-width:7;stroke-linecap:round;stroke-linejoin:miter;stroke-miterlimit:4;stroke-dasharray:none;stroke-dashoffset:0;stroke-opacity:1;filter:url(#filter843);color-rendering:auto;image-rendering:auto;shape-rendering:auto;text-rendering:auto;enable-background:accumulate" d="m 6.0097638,5.9589 a 3.50035,3.50035 0 0 0 -2.9492187,5.4434 l 5.5000001,8.5 a 3.500815,3.500815 0 1 0 5.8789058,-3.8028 l -5.4999998,-8.5 A 3.50035,3.50035 0 0 0 6.0097638,5.9589 Z"/>
 <path id="path4-3" style="fill:#ffffff;fill-rule:evenodd" d="m 24,18 v 2.0176 H 22.289062 A 3,3 0 0 0 22,20 a 3,3 0 0 0 -3,3 3,3 0 0 0 3,3 v -1 a 2,2 0 0 1 -2,-2 2,2 0 0 1 2,-2 h 2 v 2 l 4,-2.5 z"/>
 <path id="path4" style="fill:none;stroke:#e4e4e4;stroke-width:7;stroke-linecap:round;stroke-opacity:1" d="m 11.499998,17.5008 -5.4999998,-8.5"/>
 <path id="path881" style="opacity:0.3;fill:#000000;stroke-width:0.5;filter:url(#filter835)" d="M 3.0133852,1.5016 A 1.9671938,2.0013911 0 0 0 0.99999817,3.5015 V 16.4991 A 1.9671938,2.0013911 0 0 0 3.9505497,18.233 L 15.015364,11.7342 a 1.9671938,2.0013911 0 0 0 0,-3.4677 L 3.9505497,1.7676 A 1.9671938,2.0013911 0 0 0 3.0133852,1.5016 Z"/>
 <path id="path845" style="color:#000000;font-style:normal;font-variant:normal;font-weight:normal;font-stretch:normal;font-size:medium;line-height:normal;font-family:sans-serif;font-variant-ligatures:normal;font-variant-position:normal;font-variant-caps:normal;font-variant-numeric:normal;font-variant-alternates:normal;font-feature-settings:normal;text-indent:0;text-align:start;text-decoration:none;text-decoration-line:none;text-decoration-style:solid;text-decoration-color:#000000;letter-spacing:normal;word-spacing:normal;text-transform:none;writing-mode:lr-tb;direction:ltr;text-orientation:mixed;dominant-baseline:auto;baseline-shift:baseline;text-anchor:start;white-space:normal;shape-padding:0;clip-rule:nonzero;display:inline;overflow:visible;visibility:visible;opacity:0.25;isolation:auto;mix-blend-mode:normal;color-interpolation:sRGB;color-interpolation-filters:linearRGB;solid-color:#000000;solid-opacity:1;vector-effect:none;fill:#000000;fill-opacity:1;fill-rule:nonzero;stroke:none;stroke-width:7;stroke-linecap:round;stroke-linejoin:miter;stroke-miterlimit:4;stroke-dasharray:none;stroke-dashoffset:0;stroke-opacity:1;color-rendering:auto;image-rendering:auto;shape-rendering:auto;text-rendering:auto;enable-background:accumulate" d="m 6.0097656,5.4601 a 3.50035,3.50035 0 0 0 -2.9492187,5.4414 l 5.5,8.5 a 3.5008151,3.5008151 0 1 0 5.8789061,-3.8028 l -5.4999999,-8.5 A 3.50035,3.50035 0 0 0 6.0097656,5.4601 Z"/>
 <path id="path858" style="color:#000000;font-style:normal;font-variant:normal;font-weight:normal;font-stretch:normal;font-size:medium;line-height:normal;font-family:sans-serif;font-variant-ligatures:normal;font-variant-position:normal;font-variant-caps:normal;font-variant-numeric:normal;font-variant-alternates:normal;font-feature-settings:normal;text-indent:0;text-align:start;text-decoration:none;text-decoration-line:none;text-decoration-style:solid;text-decoration-color:#000000;letter-spacing:normal;word-spacing:normal;text-transform:none;writing-mode:lr-tb;direction:ltr;text-orientation:mixed;dominant-baseline:auto;baseline-shift:baseline;text-anchor:start;white-space:normal;shape-padding:0;clip-rule:nonzero;display:inline;overflow:visible;visibility:visible;opacity:0.05;isolation:auto;mix-blend-mode:normal;color-interpolation:sRGB;color-interpolation-filters:linearRGB;solid-color:#000000;solid-opacity:1;vector-effect:none;fill:#010101;fill-opacity:1;fill-rule:nonzero;stroke:none;stroke-width:7;stroke-linecap:round;stroke-linejoin:miter;stroke-miterlimit:4;stroke-dasharray:none;stroke-dashoffset:0;stroke-opacity:1;color-rendering:auto;image-rendering:auto;shape-rendering:auto;text-rendering:auto;enable-background:accumulate" d="M 6.0097656,5.4609375 A 3.50035,3.50035 0 0 0 3.0605469,10.902344 l 5.5,8.5 A 3.5008151,3.5008151 0 1 0 14.439453,15.599609 L 8.9394531,7.0996094 A 3.50035,3.50035 0 0 0 6.0097656,5.4609375 Z m -0.00977,1 c 0.8526329,0.01 1.6383219,0.4478219 2.0917969,1.1699219 l 0.00391,0.00977 5.5039055,8.5058586 c 0.498017,0.7701 0.543511,1.409635 0.382813,1.990235 -0.160698,0.5807 -0.576747,1.11415 -1.125,1.46875 -0.548253,0.3546 -1.205447,0.515428 -1.800781,0.423828 -0.595335,-0.091 -1.158233,-0.395916 -1.65625,-1.166016 l -5.5039062,-8.505859 -0.00391,-0.0098 C 2.7469888,8.6287562 3.9344415,6.4393375 6,6.4609375 Z"/>
 <path id="path846" style="fill:none;stroke-width:1;stroke:#000000;stroke-opacity:1;stroke-miterlimit:4;stroke-dasharray:none;opacity:0.25" d="M 3.0133852,1.0014 A 1.9671938,2.0013911 0 0 0 0.99999817,3.0013 V 15.9989 A 1.9671938,2.0013911 0 0 0 3.9505497,17.7328 L 15.015364,11.234 a 1.9671938,2.0013911 0 0 0 0,-3.4677 L 3.9505497,1.2674 A 1.9671938,2.0013911 0 0 0 3.0133852,1.0014 Z"/>
 <path id="path8" style="fill:#e4e4e4;stroke-width:0.5" d="M 3.0133852,1.0014 A 1.9671938,2.0013911 0 0 0 0.99999817,3.0013 V 15.9989 A 1.9671938,2.0013911 0 0 0 3.9505497,17.7328 L 15.015364,11.234 a 1.9671938,2.0013911 0 0 0 0,-3.4677 L 3.9505497,1.2674 A 1.9671938,2.0013911 0 0 0 3.0133852,1.0014 Z"/>
 <path id="circle865" style="opacity:0.05;fill:#010101;fill-opacity:1;stroke:none;stroke-width:0;stroke-linecap:round;stroke-linejoin:round;stroke-miterlimit:4;stroke-dasharray:none;stroke-dashoffset:0;stroke-opacity:1;paint-order:normal" d="M 23.5,15 A 7.5,7.5 0 0 0 16,22.5 7.5,7.5 0 0 0 23.5,30 7.5,7.5 0 0 0 31,22.5 7.5,7.5 0 0 0 23.5,15 Z m 0,1 C 27.101696,16 30,18.8983 30,22.5 30,26.1017 27.101696,29 23.5,29 19.898304,29 17,26.1017 17,22.5 17,18.8983 19.898304,16 23.5,16 Z"/>
</svg>

<svg xmlns="http://www.w3.org/2000/svg" id="svg5327" width="32" height="32" version="1.1">
 <defs id="defs5329">
  <filter id="filter883" style="color-interpolation-filters:sRGB" width="1.096" height="1.096" x="-.05" y="-.05">
   <feGaussianBlur id="feGaussianBlur885" stdDeviation=".3"/>
  </filter>
  <filter id="filter843" style="color-interpolation-filters:sRGB" width="1.108" height="1.087" x="-.05" y="-.04">
   <feGaussianBlur id="feGaussianBlur845" stdDeviation=".281"/>
  </filter>
  <filter id="filter835" style="color-interpolation-filters:sRGB" width="1.102" height="1.09" x="-.05" y="-.04">
   <feGaussianBlur id="feGaussianBlur837" stdDeviation=".32"/>
  </filter>
 </defs>
 <g id="layer1" transform="translate(0,-1020.3622)">
  <circle id="circle857" style="opacity:0.3;fill:#000000;fill-opacity:1;stroke:none;stroke-width:0;stroke-linecap:round;stroke-linejoin:round;stroke-miterlimit:4;stroke-dasharray:none;stroke-dashoffset:0;stroke-opacity:1;paint-order:normal;filter:url(#filter883)" cx="23.5" cy="1043.362" r="7.5"/>
  <circle id="path828" style="opacity:1;fill:#ab47bc;fill-opacity:1;stroke:none;stroke-width:0;stroke-linecap:round;stroke-linejoin:round;stroke-miterlimit:4;stroke-dasharray:none;stroke-dashoffset:0;stroke-opacity:1;paint-order:normal" cx="23.5" cy="1042.862" r="7.5"/>
  <path id="path877" style="color:#000000;font-style:normal;font-variant:normal;font-weight:normal;font-stretch:normal;font-size:medium;line-height:normal;font-family:sans-serif;font-variant-ligatures:normal;font-variant-position:normal;font-variant-caps:normal;font-variant-numeric:normal;font-variant-alternates:normal;font-feature-settings:normal;text-indent:0;text-align:start;text-decoration:none;text-decoration-line:none;text-decoration-style:solid;text-decoration-color:#000000;letter-spacing:normal;word-spacing:normal;text-transform:none;writing-mode:lr-tb;direction:ltr;text-orientation:mixed;dominant-baseline:auto;baseline-shift:baseline;text-anchor:start;white-space:normal;shape-padding:0;clip-rule:nonzero;display:inline;overflow:visible;visibility:visible;opacity:0.3;isolation:auto;mix-blend-mode:normal;color-interpolation:sRGB;color-interpolation-filters:linearRGB;solid-color:#000000;solid-opacity:1;vector-effect:none;fill:#000000;fill-opacity:1;fill-rule:nonzero;stroke:none;stroke-width:7;stroke-linecap:round;stroke-linejoin:miter;stroke-miterlimit:4;stroke-dasharray:none;stroke-dashoffset:0;stroke-opacity:1;filter:url(#filter843);color-rendering:auto;image-rendering:auto;shape-rendering:auto;text-rendering:auto;enable-background:accumulate" d="m 6.0097638,1026.3211 a 3.50035,3.50035 0 0 0 -2.9492187,5.4434 l 5.5000001,8.5 a 3.500815,3.500815 0 1 0 5.8789058,-3.8028 l -5.4999998,-8.5 a 3.50035,3.50035 0 0 0 -2.9296874,-1.6406 z"/>
  <path id="path4-3" style="fill:#ffffff;fill-rule:evenodd" d="m 24,1038.3622 v 2.0176 H 22.289062 A 3,3 0 0 0 22,1040.3622 a 3,3 0 0 0 -3,3 3,3 0 0 0 3,3 v -1 a 2,2 0 0 1 -2,-2 2,2 0 0 1 2,-2 h 2 v 2 l 4,-2.5 z"/>
  <path id="path4" style="fill:none;stroke:#e4e4e4;stroke-width:7;stroke-linecap:round;stroke-opacity:1" d="m 11.499998,1037.863 -5.4999998,-8.5"/>
  <path id="path881" style="opacity:0.3;fill:#000000;stroke-width:0.5;filter:url(#filter835)" d="m 3.0133852,1021.8638 a 1.9671938,2.0013911 0 0 0 -2.01338703,1.9999 v 12.9976 a 1.9671938,2.0013911 0 0 0 2.95055153,1.7339 l 11.0648143,-6.4988 a 1.9671938,2.0013911 0 0 0 0,-3.4677 l -11.0648143,-6.4989 a 1.9671938,2.0013911 0 0 0 -0.9371645,-0.266 z"/>
  <path id="path845" style="color:#000000;font-style:normal;font-variant:normal;font-weight:normal;font-stretch:normal;font-size:medium;line-height:normal;font-family:sans-serif;font-variant-ligatures:normal;font-variant-position:normal;font-variant-caps:normal;font-variant-numeric:normal;font-variant-alternates:normal;font-feature-settings:normal;text-indent:0;text-align:start;text-decoration:none;text-decoration-line:none;text-decoration-style:solid;text-decoration-color:#000000;letter-spacing:normal;word-spacing:normal;text-transform:none;writing-mode:lr-tb;direction:ltr;text-orientation:mixed;dominant-baseline:auto;baseline-shift:baseline;text-anchor:start;white-space:normal;shape-padding:0;clip-rule:nonzero;display:inline;overflow:visible;visibility:visible;opacity:0.25;isolation:auto;mix-blend-mode:normal;color-interpolation:sRGB;color-interpolation-filters:linearRGB;solid-color:#000000;solid-opacity:1;vector-effect:none;fill:#000000;fill-opacity:1;fill-rule:nonzero;stroke:none;stroke-width:7;stroke-linecap:round;stroke-linejoin:miter;stroke-miterlimit:4;stroke-dasharray:none;stroke-dashoffset:0;stroke-opacity:1;color-rendering:auto;image-rendering:auto;shape-rendering:auto;text-rendering:auto;enable-background:accumulate" d="m 6.0097656,1025.8223 a 3.50035,3.50035 0 0 0 -2.9492187,5.4414 l 5.5,8.5 a 3.5008151,3.5008151 0 1 0 5.8789061,-3.8028 l -5.4999999,-8.5 a 3.50035,3.50035 0 0 0 -2.9296875,-1.6386 z"/>
  <path id="path858" style="color:#000000;font-style:normal;font-variant:normal;font-weight:normal;font-stretch:normal;font-size:medium;line-height:normal;font-family:sans-serif;font-variant-ligatures:normal;font-variant-position:normal;font-variant-caps:normal;font-variant-numeric:normal;font-variant-alternates:normal;font-feature-settings:normal;text-indent:0;text-align:start;text-decoration:none;text-decoration-line:none;text-decoration-style:solid;text-decoration-color:#000000;letter-spacing:normal;word-spacing:normal;text-transform:none;writing-mode:lr-tb;direction:ltr;text-orientation:mixed;dominant-baseline:auto;baseline-shift:baseline;text-anchor:start;white-space:normal;shape-padding:0;clip-rule:nonzero;display:inline;overflow:visible;visibility:visible;opacity:0.05;isolation:auto;mix-blend-mode:normal;color-interpolation:sRGB;color-interpolation-filters:linearRGB;solid-color:#000000;solid-opacity:1;vector-effect:none;fill:#010101;fill-opacity:1;fill-rule:nonzero;stroke:none;stroke-width:7;stroke-linecap:round;stroke-linejoin:miter;stroke-miterlimit:4;stroke-dasharray:none;stroke-dashoffset:0;stroke-opacity:1;color-rendering:auto;image-rendering:auto;shape-rendering:auto;text-rendering:auto;enable-background:accumulate" transform="translate(0,1020.3622)" d="M 6.0097656 5.4609375 A 3.50035 3.50035 0 0 0 3.0605469 10.902344 L 8.5605469 19.402344 A 3.5008151 3.5008151 0 1 0 14.439453 15.599609 L 8.9394531 7.0996094 A 3.50035 3.50035 0 0 0 6.0097656 5.4609375 z M 6 6.4609375 C 6.8526329 6.4709375 7.6383219 6.9087594 8.0917969 7.6308594 L 8.0957031 7.640625 L 13.599609 16.146484 C 14.097626 16.916584 14.14312 17.556119 13.982422 18.136719 C 13.821724 18.717419 13.405675 19.250869 12.857422 19.605469 C 12.309169 19.960069 11.651975 20.120897 11.056641 20.029297 C 10.461306 19.938297 9.8984076 19.633381 9.4003906 18.863281 L 3.8964844 10.357422 L 3.8925781 10.347656 C 2.7469888 8.6287562 3.9344415 6.4393375 6 6.4609375 z"/>
  <path id="path8" style="fill:#e4e4e4;stroke-width:0.5" d="m 3.0133852,1021.3636 a 1.9671938,2.0013911 0 0 0 -2.01338703,1.9999 v 12.9976 a 1.9671938,2.0013911 0 0 0 2.95055153,1.7339 l 11.0648143,-6.4988 a 1.9671938,2.0013911 0 0 0 0,-3.4677 l -11.0648143,-6.4989 a 1.9671938,2.0013911 0 0 0 -0.9371645,-0.266 z"/>
  <path id="path851" style="fill:#010101;stroke-width:0.5;opacity:0.05;fill-opacity:1" transform="translate(0,1020.3622)" d="M 3.0136719 1.0019531 A 1.9671938 2.0013911 0 0 0 1 3.0019531 L 1 15.998047 A 1.9671938 2.0013911 0 0 0 3.9511719 17.732422 L 15.015625 11.234375 A 1.9671938 2.0013911 0 0 0 15.015625 7.765625 L 3.9511719 1.2675781 A 1.9671938 2.0013911 0 0 0 3.0136719 1.0019531 z M 2.9902344 2.0019531 C 3.1486674 2.0019531 3.3039638 2.0499594 3.4433594 2.1308594 L 14.509766 8.6289062 C 15.194408 9.0305062 15.194408 9.9714469 14.509766 10.373047 L 3.4433594 16.871094 C 2.7593867 17.272694 1.9997942 16.8314 2 16 L 2 3.0019531 C 2.0002695 2.4177531 2.4443051 1.9888531 2.9902344 2.0019531 z"/>
  <path id="circle865" style="opacity:0.05;fill:#010101;fill-opacity:1;stroke:none;stroke-width:0;stroke-linecap:round;stroke-linejoin:round;stroke-miterlimit:4;stroke-dasharray:none;stroke-dashoffset:0;stroke-opacity:1;paint-order:normal" transform="translate(0,1020.3622)" d="M 23.5 15 A 7.5 7.5 0 0 0 16 22.5 A 7.5 7.5 0 0 0 23.5 30 A 7.5 7.5 0 0 0 31 22.5 A 7.5 7.5 0 0 0 23.5 15 z M 23.5 16 C 27.101696 16 30 18.8983 30 22.5 C 30 26.1017 27.101696 29 23.5 29 C 19.898304 29 17 26.1017 17 22.5 C 17 18.8983 19.898304 16 23.5 16 z"/>
 </g>
</svg>
